src/assets/imgs/ico_fenxiang.svg

<?xml version="1.0" encoding="UTF-8"?>
<svg width="14px" height="14px" viewBox="0 0 14 14" version="1.1" xmlns="http://www.w3.org/2000/svg" xmlns:xlink="http://www.w3.org/1999/xlink">
    <title>ico_fenxiang</title>
    <g id="页面-1" stroke="none" stroke-width="1" fill="none" fill-rule="evenodd">
        <g id="1-分享主页" transform="translate(-297.000000, -625.000000)" fill="#FFFFFF" fill-rule="nonzero">
            <g id="编组" transform="translate(297.000000, 625.000000)">
                <path d="M11.7228069,8.83765268 C10.8111635,8.83765268 10.0657896,9.3256484 9.71866275,10.0831952 L5.31208558,8.20881583 C5.56911683,7.81055481 5.71033273,7.32257297 5.71033273,6.79632376 C5.71033273,6.57825389 5.68459906,6.35982313 5.63311786,6.1542592 L8.44665094,3.97135351 C8.8195253,4.2537853 9.29500119,4.42073485 9.8215974,4.42073485 C11.0935815,4.42073485 12.0441862,3.47050484 12.0441862,2.21245638 C12.0441862,0.954047034 11.0932345,0.00380314086 9.8215974,0.00380314086 C8.54961334,0.00380314086 7.61188928,0.954033154 7.61188928,2.21245638 C7.61188928,2.53348866 7.67623731,2.82878728 7.77883883,3.08547153 L5.18337563,5.07566624 C4.66964626,4.30525262 3.82165688,3.7657757 2.85818528,3.7657757 C2.10141963,3.76388381 1.37508416,4.06357627 0.839839447,4.59856311 C0.304594732,5.13354994 0.0045522747,5.85974091 0.00607367178,6.61650738 C0.00465204299,7.3732162 0.30474427,8.09931701 0.839987145,8.63422387 C1.37523002,9.16913073 2.10151914,9.46876692 2.85822692,9.46686429 C3.44917116,9.46686429 4.00151491,9.31312857 4.45124326,9.03071066 L9.51345971,11.1875079 C9.57780774,12.3815692 10.502665,13.2674512 11.7228208,13.2674512 C12.9951658,13.2674512 13.9328898,12.3175682 13.9328898,11.0591727 C13.9328898,9.8007634 12.9819381,8.83766656 11.7231817,8.83766656 L11.7228069,8.83765268 Z" id="路径"></path>
            </g>
        </g>
    </g>
</svg>

<svg width="14" height="14" xmlns="http://www.w3.org/2000/svg"><path d="M11.723 8.838c-.912 0-1.657.488-2.004 1.245L5.312 8.21c.257-.398.398-.886.398-1.413a2.66 2.66 0 00-.077-.642l2.814-2.183c.373.283.848.45 1.375.45 1.272 0 2.222-.95 2.222-2.209 0-1.258-.95-2.208-2.222-2.208s-2.21.95-2.21 2.208c0 .321.064.617.167.873l-2.596 1.99c-.513-.77-1.361-1.31-2.325-1.31A2.845 2.845 0 00.006 6.618a2.845 2.845 0 002.852 2.85c.591 0 1.144-.154 1.593-.436l5.062 2.157c.065 1.194.99 2.08 2.21 2.08 1.272 0 2.21-.95 2.21-2.209 0-1.258-.951-2.221-2.21-2.221z" fill="#FFF" fill-rule="nonzero"/></svg>
